X:96
T:KNDLD- Coy Lass dress'd up in her best Commode and Top-knot
S:Pills, VI, p. 55, 1720
Q:1/4=120
L:1/4
M:C|
K:G
Bded|BGGe/f/|gedB|A3B|ced_f|egfd|d(c/B/) (c/B/) (A/G/)|G3||A|\
FAdD|ABc3/2d/|Bee3/2^d/|e2(f3/2 e/4f/4)|gdec|ecBc|cBAG|\
F3/2G/AB|cBcd|e(f/e/)d(g/f/)|e (a/g/) (f/g/) (a/f/)|g2|]

